%
(SIMPLE1)
(MACHINE)
(  VENDOR LINUXCNC)
(  MODEL LINUXCNC)
(  DESCRIPTION GENERIC 3-AXIS)
(T3 D=3. CR=0. - ZMIN=-7.5 - FLAT END MILL)
N10 G90 G94 G17 G91.1
N15 G21
(WHEN USING FUSION FOR PERSONAL USE, THE FEEDRATE OF RAPID)
(MOVES IS REDUCED TO MATCH THE FEEDRATE OF CUTTING MOVES,)
(WHICH CAN INCREASE MACHINING TIME. UNRESTRICTED RAPID MOVES)
(ARE AVAILABLE WITH A FUSION SUBSCRIPTION.)
N20 G53 G0 Z0.

N10 G90 G94 G17 G91.1
N20 G21
N30 G53 G0 Z0.
(2D POCKET1)
N40 T3 M6
N50 S10000 M3
N60 G17 G90 G94
N70 G54
N80 G64 P0.1 Q0.1
N90 G0 X46.139 Y46.888
N100 G43 Z15. H3
N110 G1 Z5. F1000.
N120 Z2.8 F333.33
N130 X46.102 Y46.891 Z2.656
N140 X46. Y46.895 Z2.547
N150 X45.928 Y46.893 Z2.513
N160 X45.85 Y46.887 Z2.5
N170 G3 X46.15 Y44.053 Z2.344 I0.15 J-1.417
N180 X45.85 Y46.887 Z2.187 I-0.15 J1.417
N190 X46.15 Y44.053 Z2.031 I0.15 J-1.417
N200 X45.85 Y46.887 Z1.875 I-0.15 J1.417
N210 X46.15 Y44.053 Z1.718 I0.15 J-1.417
N220 X45.85 Y46.887 Z1.562 I-0.15 J1.417
N230 X46.15 Y44.053 Z1.406 I0.15 J-1.417
N240 X45.85 Y46.887 Z1.249 I-0.15 J1.417
N250 X46.15 Y44.053 Z1.093 I0.15 J-1.417
N260 X45.85 Y46.887 Z0.937 I-0.15 J1.417
N270 X46.15 Y44.053 Z0.78 I0.15 J-1.417
N280 X45.85 Y46.887 Z0.624 I-0.15 J1.417
N290 X46.15 Y44.053 Z0.468 I0.15 J-1.417
N300 X45.85 Y46.887 Z0.311 I-0.15 J1.417
N310 X46.15 Y44.053 Z0.155 I0.15 J-1.417
N320 X45.85 Y46.887 Z-0.001 I-0.15 J1.417
N330 X46.15 Y44.053 Z-0.158 I0.15 J-1.417
N340 X45.85 Y46.887 Z-0.314 I-0.15 J1.417
N350 X46.15 Y44.053 Z-0.47 I0.15 J-1.417
N360 X45.85 Y46.887 Z-0.627 I-0.15 J1.417
N370 X46.15 Y44.053 Z-0.783 I0.15 J-1.417
N380 X45.85 Y46.887 Z-0.939 I-0.15 J1.417
N390 X46.15 Y44.053 Z-1.096 I0.15 J-1.417
N400 X45.85 Y46.887 Z-1.252 I-0.15 J1.417
N410 X46.15 Y44.053 Z-1.408 I0.15 J-1.417
N420 X45.85 Y46.887 Z-1.565 I-0.15 J1.417
N430 X46.15 Y44.053 Z-1.721 I0.15 J-1.417
N440 X45.85 Y46.887 Z-1.877 I-0.15 J1.417
N450 X46.15 Y44.053 Z-2.034 I0.15 J-1.417
N460 X45.85 Y46.887 Z-2.19 I-0.15 J1.417
N470 X46.15 Y44.053 Z-2.346 I0.15 J-1.417
N480 X45.85 Y46.887 Z-2.503 I-0.15 J1.417
N490 X46.15 Y44.053 Z-2.659 I0.15 J-1.417
N500 X45.85 Y46.887 Z-2.815 I-0.15 J1.417
N510 X46.15 Y44.053 Z-2.972 I0.15 J-1.417
N520 X45.85 Y46.887 Z-3.128 I-0.15 J1.417
N530 X46.15 Y44.053 Z-3.284 I0.15 J-1.417
N540 X45.85 Y46.887 Z-3.441 I-0.15 J1.417
N550 X46.15 Y44.053 Z-3.597 I0.15 J-1.417
N560 X45.85 Y46.887 Z-3.753 I-0.15 J1.417
N570 X46.15 Y44.053 Z-3.91 I0.15 J-1.417
N580 X45.85 Y46.887 Z-4.066 I-0.15 J1.417
N590 X46.15 Y44.053 Z-4.222 I0.15 J-1.417
N600 X45.85 Y46.887 Z-4.379 I-0.15 J1.417
N610 X46.15 Y44.053 Z-4.535 I0.15 J-1.417
N620 X45.85 Y46.887 Z-4.691 I-0.15 J1.417
N630 X46.15 Y44.053 Z-4.848 I0.15 J-1.417
N640 X45.85 Y46.887 Z-5.004 I-0.15 J1.417
N650 X46.15 Y44.053 Z-5.16 I0.15 J-1.417
N660 X45.85 Y46.887 Z-5.317 I-0.15 J1.417
N670 X46.15 Y44.053 Z-5.473 I0.15 J-1.417
N680 X45.85 Y46.887 Z-5.629 I-0.15 J1.417
N690 X46.15 Y44.053 Z-5.786 I0.15 J-1.417
N700 X45.85 Y46.887 Z-5.942 I-0.15 J1.417
N710 X46.15 Y44.053 Z-6.098 I0.15 J-1.417
N720 X45.85 Y46.887 Z-6.255 I-0.15 J1.417
N730 X46.15 Y44.053 Z-6.411 I0.15 J-1.417
N740 X45.85 Y46.887 Z-6.567 I-0.15 J1.417
N750 X46.15 Y44.053 Z-6.724 I0.15 J-1.417
N760 X45.85 Y46.887 Z-6.88 I-0.15 J1.417
N770 X46.15 Y44.053 Z-7.036 I0.15 J-1.417
N780 X45.85 Y46.887 Z-7.193 I-0.15 J1.417
N790 X46.15 Y44.053 Z-7.349 I0.15 J-1.417
N800 X46. Y46.895 Z-7.5 I-0.15 J1.417
N810 G1 X45.424 F1000.
N820 G3 X45.105 Y46.576 I0. J-0.319
N830 G1 Y45.424
N840 G3 X45.424 Y45.105 I0.319 J0.
N850 G1 X46.576
N860 G3 X46.895 Y45.424 I0. J0.319
N870 G1 Y46.576
N880 G3 X46.576 Y46.895 I-0.319 J0.
N890 G1 X46.
N900 G2 X44.771 Y47.599 I0. J1.424
N910 G3 X43.405 Y47.228 I-0.633 J-0.371
N920 G1 Y43.724
N930 G3 X43.724 Y43.405 I0.319 J0.
N940 G1 X48.276
N950 G3 X48.595 Y43.724 I0. J0.319
N960 G1 Y48.276
N970 G3 X48.276 Y48.595 I-0.319 J0.
N980 G1 X43.724
N990 G3 X43.405 Y48.276 I0. J-0.319
N1000 G1 Y47.228
N1010 G2 X42.555 Y45.953 I-1.381 J0.
N1020 G3 X41.705 Y44.678 I0.531 J-1.275
N1030 G1 Y42.024
N1040 G3 X42.024 Y41.705 I0.319 J0.
N1050 G1 X49.976
N1060 G3 X50.295 Y42.024 I0. J0.319
N1070 G1 Y49.976
N1080 G3 X49.976 Y50.295 I-0.319 J0.
N1090 G1 X42.024
N1100 G3 X41.705 Y49.976 I0. J-0.319
N1110 G1 Y44.678
N1120 G2 X40.855 Y43.403 I-1.381 J0.
N1130 G3 X40.005 Y42.128 I0.531 J-1.275
N1140 G1 Y40.324
N1150 G3 X40.324 Y40.005 I0.319 J0.
N1160 G1 X51.676
N1170 G3 X51.995 Y40.324 I0. J0.319
N1180 G1 Y51.676
N1190 G3 X51.676 Y51.995 I-0.319 J0.
N1200 G1 X40.324
N1210 G3 X40.005 Y51.676 I0. J-0.319
N1220 G1 Y42.128
N1230 G2 X39.155 Y40.853 I-1.381 J0.
N1240 G3 X38.305 Y39.578 I0.531 J-1.275
N1250 G1 Y38.624
N1260 G3 X38.624 Y38.305 I0.319 J0.
N1270 G1 X53.376
N1280 G3 X53.695 Y38.624 I0. J0.319
N1290 G1 Y53.376
N1300 G3 X53.376 Y53.695 I-0.319 J0.
N1310 G1 X38.624
N1320 G3 X38.305 Y53.376 I0. J-0.319
N1330 G1 Y39.578
N1340 G2 X37.455 Y38.303 I-1.381 J0.
N1350 G3 X36.605 Y37.028 I0.531 J-1.275
N1360 G1 Y36.924
N1370 G3 X36.924 Y36.605 I0.319 J0.
N1380 G1 X55.076
N1390 G3 X55.395 Y36.924 I0. J0.319
N1400 G1 Y55.076
N1410 G3 X55.076 Y55.395 I-0.319 J0.
N1420 G1 X36.924
N1430 G3 X36.605 Y55.076 I0. J-0.319
N1440 G1 Y37.028
N1450 G2 X36.022 Y36.026 I-1.153 J0.
N1460 G3 X36.319 Y34.905 I0.297 J-0.521
N1470 G1 X56.776
N1480 G3 X57.095 Y35.224 I0. J0.319
N1490 G1 Y56.776
N1500 G3 X56.776 Y57.095 I-0.319 J0.
N1510 G1 X35.224
N1520 G3 X34.905 Y56.776 I0. J-0.319
N1530 G1 Y35.224
N1540 G3 X35.224 Y34.905 I0.319 J0.
N1550 G1 X36.319
N1560 G2 X37.594 Y34.055 I0. J-1.381
N1570 G3 X38.869 Y33.205 I1.275 J0.531
N1580 G1 X58.476
N1590 G3 X58.795 Y33.524 I0. J0.319
N1600 G1 Y58.476
N1610 G3 X58.476 Y58.795 I-0.319 J0.
N1620 G1 X33.524
N1630 G3 X33.205 Y58.476 I0. J-0.319
N1640 G1 Y33.524
N1650 G3 X33.524 Y33.205 I0.319 J0.
N1660 G1 X38.869
N1670 G2 X40.144 Y32.355 I0. J-1.381
N1680 G3 X41.419 Y31.505 I1.275 J0.531
N1690 G1 X60.176
N1700 G3 X60.495 Y31.824 I0. J0.319
N1710 G1 Y60.176
N1720 G3 X60.176 Y60.495 I-0.319 J0.
N1730 G1 X31.824
N1740 G3 X31.505 Y60.176 I0. J-0.319
N1750 G1 Y31.824
N1760 G3 X31.824 Y31.505 I0.319 J0.
N1770 G1 X41.419
N1780 G2 X42.694 Y30.655 I0. J-1.381
N1790 G3 X43.969 Y29.805 I1.275 J0.531
N1800 G1 X61.876
N1810 G3 X62.195 Y30.124 I0. J0.319
N1820 G1 Y61.876
N1830 G3 X61.876 Y62.195 I-0.319 J0.
N1840 G1 X30.124
N1850 G3 X29.805 Y61.876 I0. J-0.319
N1860 G1 Y30.124
N1870 G3 X30.124 Y29.805 I0.319 J0.
N1880 G1 X43.969
N1890 G2 X45.244 Y28.955 I0. J-1.381
N1900 G3 X46.519 Y28.105 I1.275 J0.531
N1910 G1 X63.576
N1920 G3 X63.895 Y28.424 I0. J0.319
N1930 G1 Y63.576
N1940 G3 X63.576 Y63.895 I-0.319 J0.
N1950 G1 X28.424
N1960 G3 X28.105 Y63.576 I0. J-0.319
N1970 G1 Y28.424
N1980 G3 X28.424 Y28.105 I0.319 J0.
N1990 G1 X46.519
N2000 G2 X47.794 Y27.255 I0. J-1.381
N2010 G3 X49.069 Y26.405 I1.275 J0.531
N2020 G1 X65.276
N2030 G3 X65.595 Y26.724 I0. J0.319
N2040 G1 Y65.276
N2050 G3 X65.276 Y65.595 I-0.319 J0.
N2060 G1 X26.724
N2070 G3 X26.405 Y65.276 I0. J-0.319
N2080 G1 Y26.724
N2090 G3 X26.724 Y26.405 I0.319 J0.
N2100 G1 X49.069
N2110 G2 X50.344 Y25.555 I0. J-1.381
N2120 G3 X51.619 Y24.705 I1.275 J0.531
N2130 G1 X66.976
N2140 G3 X67.295 Y25.024 I0. J0.319
N2150 G1 Y66.976
N2160 G3 X66.976 Y67.295 I-0.319 J0.
N2170 G1 X25.024
N2180 G3 X24.705 Y66.976 I0. J-0.319
N2190 G1 Y25.024
N2200 G3 X25.024 Y24.705 I0.319 J0.
N2210 G1 X51.619
N2220 G2 X52.898 Y23.853 I0. J-1.385
N2230 G3 X54.177 Y23. I1.279 J0.533
N2240 G1 X69.
N2250 Y69.
N2260 X23.
N2270 Y23.
N2280 X54.177
N2290 X54.234 Y23.007 Z-7.489
N2300 X54.288 Y23.025 Z-7.477
N2310 X54.331 Y23.048 Z-7.445
N2320 X54.369 Y23.079 Z-7.412
N2330 X54.411 Y23.128 Z-7.315
N2340 X54.423 Y23.147 Z-7.2
N2350 Z15.
N2360 M5
N2370 G53 G0 Z0.
N2380 G90 G94 G17 G91.1
N2390 G21
N2400 G53 G0 Z0.
(2D CONTOUR2)
N2410 T3 M6
N2420 S10000 M3
N2430 G17 G90 G94
N2440 G54
N2450 G64 P0.01 Q0.01
N2460 G0 X46.3 Y-1.4
N2470 G43 Z15. H3
N2480 G1 Z5. F1000.
N2490 Z0.6 F333.33
N2500 Z-9.7
N2510 G19 G3 Y-1.1 Z-10. J0.3 K0. F1000.
N2520 G1 Y-0.8
N2530 G17 G3 X46. Y-0.5 I-0.3 J0.
N2540 G1 X1.
N2550 G2 X-0.5 Y1. I0. J1.5
N2560 G1 Y91.
N2570 G2 X1. Y92.5 I1.5 J0.
N2580 G1 X91.
N2590 G2 X92.5 Y91. I0. J-1.5
N2600 G1 Y1.
N2610 G2 X91. Y-0.5 I-1.5 J0.
N2620 G1 X46.
N2630 G3 X45.7 Y-0.8 I0. J-0.3
N2640 G1 Y-1.1
N2650 G19 G2 Y-1.4 Z-9.7 J0. K0.3
N2660 G1 Z15.
N2670 G17
N2680 M5
N2690 G53 G0 Z0.

M5
G53 G0 Z0.
M30
%
