%
(SIMPLE2)
(MACHINE)
(  VENDOR LINUXCNC)
(  MODEL LINUXCNC)
(  DESCRIPTION GENERIC 3-AXIS)
(T3 D=3. CR=0. - ZMIN=-10. - FLAT END MILL)
N10 G90 G94 G17 G91.1
N15 G21
(WHEN USING FUSION FOR PERSONAL USE, THE FEEDRATE OF RAPID)
(MOVES IS REDUCED TO MATCH THE FEEDRATE OF CUTTING MOVES,)
(WHICH CAN INCREASE MACHINING TIME. UNRESTRICTED RAPID MOVES)
(ARE AVAILABLE WITH A FUSION SUBSCRIPTION.)
N20 G53 G0 Z0.
(2D CONTOUR2)
N25 T3 M6
N30 S10000 M3
N35 G17 G90 G94
N40 G54
N45 G64 P0.01 Q0.01
N50 G0 X46.3 Y-1.4
N55 G43 Z15. H3
N60 G1 Z5. F1000.
N65 Z0.6 F333.33
N70 Z-9.7
N75 G19 G3 Y-1.1 Z-10. J0.3 K0. F1000.
N80 G1 Y-0.8
N85 G17 G3 X46. Y-0.5 I-0.3 J0.
N90 G1 X1.
N95 G2 X-0.5 Y1. I0. J1.5
N100 G1 Y91.
N105 G2 X1. Y92.5 I1.5 J0.
N110 G1 X91.
N115 G2 X92.5 Y91. I0. J-1.5
N120 G1 Y1.
N125 G2 X91. Y-0.5 I-1.5 J0.
N130 G1 X46.
N135 G3 X45.7 Y-0.8 I0. J-0.3
N140 G1 Y-1.1
N145 G19 G2 Y-1.4 Z-9.7 J0. K0.3
N150 G1 Z15.
N155 G17
N160 M5
N165 G53 G0 Z0.
N170 M30
%
