%
(SIMPLE1)
(MACHINE)
(  VENDOR LINUXCNC)
(  MODEL LINUXCNC)
(  DESCRIPTION GENERIC 3-AXIS)
(T3 D=3. CR=0. - ZMIN=-7.5 - FLAT END MILL)
N10 G90 G94 G17 G91.1
N15 G21
(WHEN USING FUSION FOR PERSONAL USE, THE FEEDRATE OF RAPID)
(MOVES IS REDUCED TO MATCH THE FEEDRATE OF CUTTING MOVES,)
(WHICH CAN INCREASE MACHINING TIME. UNRESTRICTED RAPID MOVES)
(ARE AVAILABLE WITH A FUSION SUBSCRIPTION.)
N20 G53 G0 Z0.
(2D POCKET1)
N25 T3 M6
N30 S10000 M3
N35 G17 G90 G94
N40 G54
N45 G64 P0.1 Q0.1
N50 G0 X46.139 Y46.888
N55 G43 Z15. H3
N60 G1 Z5. F1000.
N65 Z2.8 F333.33
N70 X46.102 Y46.891 Z2.656
N75 X46. Y46.895 Z2.547
N80 X45.928 Y46.893 Z2.513
N85 X45.85 Y46.887 Z2.5
N90 G3 X46.15 Y44.053 Z2.344 I0.15 J-1.417
N95 X45.85 Y46.887 Z2.187 I-0.15 J1.417
N100 X46.15 Y44.053 Z2.031 I0.15 J-1.417
N105 X45.85 Y46.887 Z1.875 I-0.15 J1.417
N110 X46.15 Y44.053 Z1.718 I0.15 J-1.417
N115 X45.85 Y46.887 Z1.562 I-0.15 J1.417
N120 X46.15 Y44.053 Z1.406 I0.15 J-1.417
N125 X45.85 Y46.887 Z1.249 I-0.15 J1.417
N130 X46.15 Y44.053 Z1.093 I0.15 J-1.417
N135 X45.85 Y46.887 Z0.937 I-0.15 J1.417
N140 X46.15 Y44.053 Z0.78 I0.15 J-1.417
N145 X45.85 Y46.887 Z0.624 I-0.15 J1.417
N150 X46.15 Y44.053 Z0.468 I0.15 J-1.417
N155 X45.85 Y46.887 Z0.311 I-0.15 J1.417
N160 X46.15 Y44.053 Z0.155 I0.15 J-1.417
N165 X45.85 Y46.887 Z-0.001 I-0.15 J1.417
N170 X46.15 Y44.053 Z-0.158 I0.15 J-1.417
N175 X45.85 Y46.887 Z-0.314 I-0.15 J1.417
N180 X46.15 Y44.053 Z-0.47 I0.15 J-1.417
N185 X45.85 Y46.887 Z-0.627 I-0.15 J1.417
N190 X46.15 Y44.053 Z-0.783 I0.15 J-1.417
N195 X45.85 Y46.887 Z-0.939 I-0.15 J1.417
N200 X46.15 Y44.053 Z-1.096 I0.15 J-1.417
N205 X45.85 Y46.887 Z-1.252 I-0.15 J1.417
N210 X46.15 Y44.053 Z-1.408 I0.15 J-1.417
N215 X45.85 Y46.887 Z-1.565 I-0.15 J1.417
N220 X46.15 Y44.053 Z-1.721 I0.15 J-1.417
N225 X45.85 Y46.887 Z-1.877 I-0.15 J1.417
N230 X46.15 Y44.053 Z-2.034 I0.15 J-1.417
N235 X45.85 Y46.887 Z-2.19 I-0.15 J1.417
N240 X46.15 Y44.053 Z-2.346 I0.15 J-1.417
N245 X45.85 Y46.887 Z-2.503 I-0.15 J1.417
N250 X46.15 Y44.053 Z-2.659 I0.15 J-1.417
N255 X45.85 Y46.887 Z-2.815 I-0.15 J1.417
N260 X46.15 Y44.053 Z-2.972 I0.15 J-1.417
N265 X45.85 Y46.887 Z-3.128 I-0.15 J1.417
N270 X46.15 Y44.053 Z-3.284 I0.15 J-1.417
N275 X45.85 Y46.887 Z-3.441 I-0.15 J1.417
N280 X46.15 Y44.053 Z-3.597 I0.15 J-1.417
N285 X45.85 Y46.887 Z-3.753 I-0.15 J1.417
N290 X46.15 Y44.053 Z-3.91 I0.15 J-1.417
N295 X45.85 Y46.887 Z-4.066 I-0.15 J1.417
N300 X46.15 Y44.053 Z-4.222 I0.15 J-1.417
N305 X45.85 Y46.887 Z-4.379 I-0.15 J1.417
N310 X46.15 Y44.053 Z-4.535 I0.15 J-1.417
N315 X45.85 Y46.887 Z-4.691 I-0.15 J1.417
N320 X46.15 Y44.053 Z-4.848 I0.15 J-1.417
N325 X45.85 Y46.887 Z-5.004 I-0.15 J1.417
N330 X46.15 Y44.053 Z-5.16 I0.15 J-1.417
N335 X45.85 Y46.887 Z-5.317 I-0.15 J1.417
N340 X46.15 Y44.053 Z-5.473 I0.15 J-1.417
N345 X45.85 Y46.887 Z-5.629 I-0.15 J1.417
N350 X46.15 Y44.053 Z-5.786 I0.15 J-1.417
N355 X45.85 Y46.887 Z-5.942 I-0.15 J1.417
N360 X46.15 Y44.053 Z-6.098 I0.15 J-1.417
N365 X45.85 Y46.887 Z-6.255 I-0.15 J1.417
N370 X46.15 Y44.053 Z-6.411 I0.15 J-1.417
N375 X45.85 Y46.887 Z-6.567 I-0.15 J1.417
N380 X46.15 Y44.053 Z-6.724 I0.15 J-1.417
N385 X45.85 Y46.887 Z-6.88 I-0.15 J1.417
N390 X46.15 Y44.053 Z-7.036 I0.15 J-1.417
N395 X45.85 Y46.887 Z-7.193 I-0.15 J1.417
N400 X46.15 Y44.053 Z-7.349 I0.15 J-1.417
N405 X46. Y46.895 Z-7.5 I-0.15 J1.417
N410 G1 X45.424 F1000.
N415 G3 X45.105 Y46.576 I0. J-0.319
N420 G1 Y45.424
N425 G3 X45.424 Y45.105 I0.319 J0.
N430 G1 X46.576
N435 G3 X46.895 Y45.424 I0. J0.319
N440 G1 Y46.576
N445 G3 X46.576 Y46.895 I-0.319 J0.
N450 G1 X46.
N455 G2 X44.771 Y47.599 I0. J1.424
N460 G3 X43.405 Y47.228 I-0.633 J-0.371
N465 G1 Y43.724
N470 G3 X43.724 Y43.405 I0.319 J0.
N475 G1 X48.276
N480 G3 X48.595 Y43.724 I0. J0.319
N485 G1 Y48.276
N490 G3 X48.276 Y48.595 I-0.319 J0.
N495 G1 X43.724
N500 G3 X43.405 Y48.276 I0. J-0.319
N505 G1 Y47.228
N510 G2 X42.555 Y45.953 I-1.381 J0.
N515 G3 X41.705 Y44.678 I0.531 J-1.275
N520 G1 Y42.024
N525 G3 X42.024 Y41.705 I0.319 J0.
N530 G1 X49.976
N535 G3 X50.295 Y42.024 I0. J0.319
N540 G1 Y49.976
N545 G3 X49.976 Y50.295 I-0.319 J0.
N550 G1 X42.024
N555 G3 X41.705 Y49.976 I0. J-0.319
N560 G1 Y44.678
N565 G2 X40.855 Y43.403 I-1.381 J0.
N570 G3 X40.005 Y42.128 I0.531 J-1.275
N575 G1 Y40.324
N580 G3 X40.324 Y40.005 I0.319 J0.
N585 G1 X51.676
N590 G3 X51.995 Y40.324 I0. J0.319
N595 G1 Y51.676
N600 G3 X51.676 Y51.995 I-0.319 J0.
N605 G1 X40.324
N610 G3 X40.005 Y51.676 I0. J-0.319
N615 G1 Y42.128
N620 G2 X39.155 Y40.853 I-1.381 J0.
N625 G3 X38.305 Y39.578 I0.531 J-1.275
N630 G1 Y38.624
N635 G3 X38.624 Y38.305 I0.319 J0.
N640 G1 X53.376
N645 G3 X53.695 Y38.624 I0. J0.319
N650 G1 Y53.376
N655 G3 X53.376 Y53.695 I-0.319 J0.
N660 G1 X38.624
N665 G3 X38.305 Y53.376 I0. J-0.319
N670 G1 Y39.578
N675 G2 X37.455 Y38.303 I-1.381 J0.
N680 G3 X36.605 Y37.028 I0.531 J-1.275
N685 G1 Y36.924
N690 G3 X36.924 Y36.605 I0.319 J0.
N695 G1 X55.076
N700 G3 X55.395 Y36.924 I0. J0.319
N705 G1 Y55.076
N710 G3 X55.076 Y55.395 I-0.319 J0.
N715 G1 X36.924
N720 G3 X36.605 Y55.076 I0. J-0.319
N725 G1 Y37.028
N730 G2 X36.022 Y36.026 I-1.153 J0.
N735 G3 X36.319 Y34.905 I0.297 J-0.521
N740 G1 X56.776
N745 G3 X57.095 Y35.224 I0. J0.319
N750 G1 Y56.776
N755 G3 X56.776 Y57.095 I-0.319 J0.
N760 G1 X35.224
N765 G3 X34.905 Y56.776 I0. J-0.319
N770 G1 Y35.224
N775 G3 X35.224 Y34.905 I0.319 J0.
N780 G1 X36.319
N785 G2 X37.594 Y34.055 I0. J-1.381
N790 G3 X38.869 Y33.205 I1.275 J0.531
N795 G1 X58.476
N800 G3 X58.795 Y33.524 I0. J0.319
N805 G1 Y58.476
N810 G3 X58.476 Y58.795 I-0.319 J0.
N815 G1 X33.524
N820 G3 X33.205 Y58.476 I0. J-0.319
N825 G1 Y33.524
N830 G3 X33.524 Y33.205 I0.319 J0.
N835 G1 X38.869
N840 G2 X40.144 Y32.355 I0. J-1.381
N845 G3 X41.419 Y31.505 I1.275 J0.531
N850 G1 X60.176
N855 G3 X60.495 Y31.824 I0. J0.319
N860 G1 Y60.176
N865 G3 X60.176 Y60.495 I-0.319 J0.
N870 G1 X31.824
N875 G3 X31.505 Y60.176 I0. J-0.319
N880 G1 Y31.824
N885 G3 X31.824 Y31.505 I0.319 J0.
N890 G1 X41.419
N895 G2 X42.694 Y30.655 I0. J-1.381
N900 G3 X43.969 Y29.805 I1.275 J0.531
N905 G1 X61.876
N910 G3 X62.195 Y30.124 I0. J0.319
N915 G1 Y61.876
N920 G3 X61.876 Y62.195 I-0.319 J0.
N925 G1 X30.124
N930 G3 X29.805 Y61.876 I0. J-0.319
N935 G1 Y30.124
N940 G3 X30.124 Y29.805 I0.319 J0.
N945 G1 X43.969
N950 G2 X45.244 Y28.955 I0. J-1.381
N955 G3 X46.519 Y28.105 I1.275 J0.531
N960 G1 X63.576
N965 G3 X63.895 Y28.424 I0. J0.319
N970 G1 Y63.576
N975 G3 X63.576 Y63.895 I-0.319 J0.
N980 G1 X28.424
N985 G3 X28.105 Y63.576 I0. J-0.319
N990 G1 Y28.424
N995 G3 X28.424 Y28.105 I0.319 J0.
N1000 G1 X46.519
N1005 G2 X47.794 Y27.255 I0. J-1.381
N1010 G3 X49.069 Y26.405 I1.275 J0.531
N1015 G1 X65.276
N1020 G3 X65.595 Y26.724 I0. J0.319
N1025 G1 Y65.276
N1030 G3 X65.276 Y65.595 I-0.319 J0.
N1035 G1 X26.724
N1040 G3 X26.405 Y65.276 I0. J-0.319
N1045 G1 Y26.724
N1050 G3 X26.724 Y26.405 I0.319 J0.
N1055 G1 X49.069
N1060 G2 X50.344 Y25.555 I0. J-1.381
N1065 G3 X51.619 Y24.705 I1.275 J0.531
N1070 G1 X66.976
N1075 G3 X67.295 Y25.024 I0. J0.319
N1080 G1 Y66.976
N1085 G3 X66.976 Y67.295 I-0.319 J0.
N1090 G1 X25.024
N1095 G3 X24.705 Y66.976 I0. J-0.319
N1100 G1 Y25.024
N1105 G3 X25.024 Y24.705 I0.319 J0.
N1110 G1 X51.619
N1115 G2 X52.898 Y23.853 I0. J-1.385
N1120 G3 X54.177 Y23. I1.279 J0.533
N1125 G1 X69.
N1130 Y69.
N1135 X23.
N1140 Y23.
N1145 X54.177
N1150 X54.234 Y23.007 Z-7.489
N1155 X54.288 Y23.025 Z-7.477
N1160 X54.331 Y23.048 Z-7.445
N1165 X54.369 Y23.079 Z-7.412
N1170 X54.411 Y23.128 Z-7.315
N1175 X54.423 Y23.147 Z-7.2
N1180 Z15.
N1185 M5
N1190 G53 G0 Z0.
N1195 M30
%
